X:1
T:Waith, 77.77.7.11
T:Waith, 77.77.7.11
T:William Sereno Waith, 1895
T:Public Domain Courtesy of the Cyber Hymnal™
C:William Sereno Waith, 1895
Z:Public Domain
Z:Courtesy of the Cyber Hymnal™
%%score ( 1 2 ) ( 3 4 )
L:1/8
Q:1/4=113
M:4/4
K:F
V:1 treble 
V:2 treble 
V:3 bass 
V:4 bass 
V:1
 [FA]2 [FA]2 (AG) F2 | [DF]2 [DF]2 [CF]4 | F2 [EG]2 (AB) [Fc]2 | [FB]2 [FA]2 [EG]4 | %4
 [^CA]2 [=CA]2 (AG) [_B,F]2 | [B,E]2 [B,D]2 [A,C]4 | (DE) [DF]2 [Dc]2 [DB]2 | [FA]2 [EG]2 [FA]4 | %8
 [^FA]2 ([EG][FA]) [GB]2 [GB]2 | [Ac]2 ([GB][Ac]) [Bd]4 | [Ad]2 [Ac]2 [Gc]2 [GB]2 | %11
 [^FB]2 [FA]2 [FA]2 G2 | [DF]4 [_DG]4 | [CA]8 |] %14
V:2
 x4 E2 F2 | x8 | F2 F2 x4 | x8 | x4 =B,2 x2 | x8 | D2 x6 | x8 | x8 | x8 | x8 | x6 G2 | x8 | x8 |] %14
V:3
 [F,C]2 [A,,C]2 (CB,) [D,A,]2 | [B,,C]2 [B,,B,]2 [F,,A,]4 | [A,,C]2 [C,C]2 [F,C]2 [A,,C]2 | %3
 [B,,D]2 [=B,,D]2 [C,G,]4 | [A,,G,]2 [D,^F,]2 [G,,=F,]2 [D,F,]2 | [C,G,]2 [C,E,]2 [F,,F,]4 | %6
 [B,,F,]2 [B,,F,]2 [A,,^F,]2 [G,,G,]2 | [C,A,]2 [C,C]2 [F,C]4 | [D,C]2 [D,C]2 [G,B,]2 [G,B,]2 | %9
 [F,_E]2 [F,E]2 [B,D]4 | [^F,D]2 [F,D]2 [G,D]2 [G,D]2 | [D,C]2 [D,C]2 [_E,C]2 [E,B,]2 | %12
 (B,2 F,2) [B,,F,]4 | [F,,F,]8 |] %14
V:4
 x4 C,2 x2 | x8 | x8 | x8 | x8 | x8 | x8 | x8 | x8 | x8 | x8 | x8 | B,,4 x4 | x8 |] %14

